src/assets/vehicles-icon.svg

<svg width="633" height="633" fill="none" xmlns="http://www.w3.org/2000/svg"><circle cx="316.5" cy="316.5" r="316.5" fill="url(#paint0_linear_1061_1979)"/><path d="M449.973 392.762c-24.47 0-44.393-19.923-44.393-44.392 0-24.47 19.923-44.393 44.393-44.393 24.469 0 44.392 19.923 44.392 44.393 0 24.469-19.923 44.392-44.392 44.392zm0-80.601c-19.923 0-36.126 16.203-36.126 36.126s16.203 36.126 36.126 36.126 36.126-16.203 36.126-36.126-16.203-36.126-36.126-36.126zm-268.01 80.601c-24.47 0-44.393-19.923-44.393-44.392 0-24.47 19.923-44.393 44.393-44.393 24.47 0 44.393 19.923 44.393 44.393 0 24.469-19.923 44.392-44.393 44.392zm0-80.601c-19.923 0-36.126 16.203-36.126 36.126s16.203 36.209 36.126 36.209 36.126-16.203 36.126-36.126-16.203-36.209-36.126-36.209z" fill="#fff"/><path d="M181.964 372.261c-13.144 0-23.891-10.747-23.891-23.891 0-13.145 10.747-23.891 23.891-23.891 13.145 0 23.891 10.746 23.891 23.891 0 13.144-10.746 23.891-23.891 23.891zm0-39.598c-8.597 0-15.624 7.026-15.624 15.624 0 8.597 7.027 15.624 15.624 15.624 8.598 0 15.625-7.027 15.625-15.624 0-8.598-7.027-15.624-15.625-15.624zm267.845 39.598c-13.145 0-23.891-10.747-23.891-23.891 0-13.145 10.746-23.891 23.891-23.891 13.144 0 23.891 10.746 23.891 23.891 0 13.144-10.747 23.891-23.891 23.891zm0-39.598c-8.598 0-15.625 7.026-15.625 15.624 0 8.597 7.027 15.624 15.625 15.624 8.597 0 15.624-7.027 15.624-15.624 0-8.598-7.027-15.624-15.624-15.624z" fill="#fff"/><path d="M514.207 372.095h-29.182v-8.266h25.048v-15.542c0-.579.083-1.157.331-1.653l8.597-19.593-16.451-12.317c-18.187-13.64-40.672-21.163-63.406-21.163h-34.886c-.827 0-1.653-.248-2.315-.744l-36.622-24.883c-20.005-13.558-43.318-20.75-67.457-20.75h-86.47l-98.127 30.009v3.968h4.96a4.092 4.092 0 014.133 4.133v35.547a4.093 4.093 0 01-4.133 4.134h-4.96v22.568l12.4 16.286h21.163v8.266H123.6c-1.322 0-2.48-.578-3.306-1.653l-14.467-19.014c-.579-.744-.827-1.57-.827-2.48v-28.107a4.093 4.093 0 014.133-4.133h4.96v-27.281h-4.96a4.093 4.093 0 01-4.133-4.133v-11.16c0-1.819 1.157-3.389 2.893-3.968l101.682-31.001c.413-.082.827-.165 1.24-.165h87.049c25.793 0 50.759 7.688 72.087 22.155l35.547 24.139h33.646c24.47 0 48.774 8.102 68.366 22.816l19.097 14.302c1.57 1.157 2.066 3.224 1.322 4.96l-9.589 21.824v18.766a4.093 4.093 0 01-4.133 4.133z" fill="#fff"/><path d="M414.84 363.829h-59.191v8.266h59.191v-8.266zm-75.724 0h-122.1v8.266h122.1v-8.266zm-202.95-38.854h-17.939a4.093 4.093 0 01-4.133-4.133v-35.548a4.093 4.093 0 014.133-4.133h18.022c1.653 0 3.141.992 3.802 2.48l8.681 20.254c.496 1.157.413 2.562-.166 3.637l-8.68 15.294c-.827 1.322-2.232 2.149-3.72 2.149zm-13.805-8.267h11.408l6.448-11.408-6.696-15.872h-11.16v27.28zm256.27-24.8H316.63c-.248 0-.413 0-.661-.083l-83.081-12.813 1.24-8.185 82.833 12.814h48.774l-3.389-2.397c-20.502-14.633-44.641-22.403-69.855-22.403h-73.657l-21.659 6.365 20.502 3.141-1.24 8.185-38.854-5.953c-1.902-.33-3.39-1.901-3.472-3.802a4.02 4.02 0 012.976-4.216l40.094-11.739c.413-.083.744-.166 1.157-.166h74.236c26.95 0 52.742 8.267 74.649 23.892l13.888 9.92c1.488 1.074 2.067 2.893 1.571 4.629-.661 1.653-2.232 2.811-4.051 2.811z" fill="#fff"/><path d="M266.368 284.219c-.248 0-.414 0-.662-.082l-16.864-2.563c-1.984-.331-3.472-2.067-3.472-4.051v-22.816a4.094 4.094 0 014.133-4.134h16.865a4.094 4.094 0 014.133 4.134v25.296c0 1.24-.496 2.315-1.405 3.142-.744.661-1.736 1.074-2.728 1.074zm-12.731-10.333l8.597 1.323V258.84h-8.597v15.046zm145.826 78.534l-134.418-8.018c-1.157-.083-2.232-.662-2.976-1.571l-25.545-32.241c-.826-.992-1.074-2.314-.744-3.554.331-1.24 1.158-2.232 2.315-2.811l26.702-11.987c.744-.331 1.488-.413 2.315-.331l130.946 19.841-1.24 8.184-129.789-19.592-20.667 9.258 21.08 26.62 132.6 7.936-.579 8.266zm124.663-30.752h-25.627v8.267h25.627v-8.267z" fill="#fff"/><defs><linearGradient id="paint0_linear_1061_1979" x1="-68.487" y1="381.809" x2="701.487" y2="388.191" gradientUnits="userSpaceOnUse"><stop stop-color="#024EC9"/><stop offset="1" stop-color="#3884FF"/></linearGradient></defs></svg>

<svg width="633" height="633" viewBox="0 0 633 633" fill="none" xmlns="http://www.w3.org/2000/svg">
<circle cx="316.5" cy="316.5" r="316.5" fill="url(#paint0_linear_1061_1979)"/>
<path d="M449.973 392.762C425.503 392.762 405.58 372.839 405.58 348.37C405.58 323.9 425.503 303.977 449.973 303.977C474.442 303.977 494.365 323.9 494.365 348.37C494.365 372.839 474.442 392.762 449.973 392.762ZM449.973 312.161C430.05 312.161 413.847 328.364 413.847 348.287C413.847 368.21 430.05 384.413 449.973 384.413C469.896 384.413 486.099 368.21 486.099 348.287C486.099 328.364 469.896 312.161 449.973 312.161ZM181.963 392.762C157.493 392.762 137.57 372.839 137.57 348.37C137.57 323.9 157.493 303.977 181.963 303.977C206.433 303.977 226.356 323.9 226.356 348.37C226.356 372.839 206.433 392.762 181.963 392.762ZM181.963 312.161C162.04 312.161 145.837 328.364 145.837 348.287C145.837 368.21 162.04 384.496 181.963 384.496C201.886 384.496 218.089 368.293 218.089 348.37C218.089 328.447 201.886 312.161 181.963 312.161Z" fill="white"/>
<path d="M181.964 372.261C168.82 372.261 158.073 361.514 158.073 348.37C158.073 335.225 168.82 324.479 181.964 324.479C195.109 324.479 205.855 335.225 205.855 348.37C205.855 361.514 195.109 372.261 181.964 372.261ZM181.964 332.663C173.367 332.663 166.34 339.689 166.34 348.287C166.34 356.884 173.367 363.911 181.964 363.911C190.562 363.911 197.589 356.884 197.589 348.287C197.589 339.689 190.562 332.663 181.964 332.663ZM449.809 372.261C436.664 372.261 425.918 361.514 425.918 348.37C425.918 335.225 436.664 324.479 449.809 324.479C462.953 324.479 473.7 335.225 473.7 348.37C473.7 361.514 462.953 372.261 449.809 372.261ZM449.809 332.663C441.211 332.663 434.184 339.689 434.184 348.287C434.184 356.884 441.211 363.911 449.809 363.911C458.406 363.911 465.433 356.884 465.433 348.287C465.433 339.689 458.406 332.663 449.809 332.663Z" fill="white"/>
<path d="M514.207 372.095H485.025V363.829H510.073V348.287C510.073 347.708 510.156 347.13 510.404 346.634L519.001 327.041L502.55 314.724C484.363 301.084 461.878 293.561 439.144 293.561H404.258C403.431 293.561 402.605 293.313 401.943 292.817L365.321 267.934C345.316 254.376 322.003 247.184 297.864 247.184H211.394L113.267 277.193V281.161H118.227C120.542 281.161 122.36 282.979 122.36 285.294V320.841C122.36 323.156 120.542 324.975 118.227 324.975H113.267V347.543L125.667 363.829H146.83V372.095H123.6C122.278 372.095 121.12 371.517 120.294 370.442L105.827 351.428C105.248 350.684 105 349.858 105 348.948V320.841C105 318.527 106.819 316.708 109.133 316.708H114.093V289.427H109.133C106.819 289.427 105 287.609 105 285.294V274.134C105 272.315 106.157 270.745 107.893 270.166L209.575 239.165C209.988 239.083 210.402 239 210.815 239H297.864C323.657 239 348.623 246.688 369.951 261.155L405.498 285.294H439.144C463.614 285.294 487.918 293.396 507.51 308.11L526.607 322.412C528.177 323.569 528.673 325.636 527.929 327.372L518.34 349.196V367.962C518.34 370.277 516.521 372.095 514.207 372.095Z" fill="white"/>
<path d="M414.84 363.829H355.649V372.095H414.84V363.829Z" fill="white"/>
<path d="M339.116 363.829H217.016V372.095H339.116V363.829Z" fill="white"/>
<path d="M136.166 324.975H118.227C115.912 324.975 114.094 323.156 114.094 320.842V285.294C114.094 282.98 115.912 281.161 118.227 281.161H136.249C137.902 281.161 139.39 282.153 140.051 283.641L148.732 303.895C149.228 305.052 149.145 306.457 148.566 307.532L139.886 322.826C139.059 324.148 137.654 324.975 136.166 324.975ZM122.361 316.708H133.769L140.217 305.3L133.521 289.428H122.361V316.708ZM378.631 291.908H316.63C316.382 291.908 316.217 291.908 315.969 291.825L232.888 279.012L234.128 270.827L316.961 283.641H365.735L362.346 281.244C341.844 266.611 317.705 258.841 292.491 258.841H218.834L197.175 265.206L217.677 268.347L216.437 276.532L177.583 270.579C175.681 270.249 174.193 268.678 174.111 266.777C173.945 264.875 175.185 263.057 177.087 262.561L217.181 250.822C217.594 250.739 217.925 250.656 218.338 250.656H292.574C319.524 250.656 345.316 258.923 367.223 274.548L381.111 284.468C382.599 285.542 383.178 287.361 382.682 289.097C382.021 290.75 380.45 291.908 378.631 291.908Z" fill="white"/>
<path d="M266.368 284.219C266.12 284.219 265.954 284.219 265.706 284.137L248.842 281.574C246.858 281.243 245.37 279.507 245.37 277.523V254.707C245.37 252.392 247.189 250.573 249.503 250.573H266.368C268.682 250.573 270.501 252.392 270.501 254.707V280.003C270.501 281.243 270.005 282.318 269.096 283.145C268.352 283.806 267.36 284.219 266.368 284.219ZM253.637 273.886L262.234 275.209V258.84H253.637V273.886ZM399.463 352.42L265.045 344.402C263.888 344.319 262.813 343.74 262.069 342.831L236.524 310.59C235.698 309.598 235.45 308.276 235.78 307.036C236.111 305.796 236.938 304.804 238.095 304.225L264.797 292.238C265.541 291.907 266.285 291.825 267.112 291.907L398.058 311.748L396.818 319.932L267.029 300.34L246.362 309.598L267.442 336.218L400.042 344.154L399.463 352.42Z" fill="white"/>
<path d="M524.126 321.668H498.499V329.935H524.126V321.668Z" fill="white"/>
<defs>
<linearGradient id="paint0_linear_1061_1979" x1="-68.4868" y1="381.809" x2="701.487" y2="388.191" gradientUnits="userSpaceOnUse">
<stop stop-color="#024EC9"/>
<stop offset="1" stop-color="#3884FF"/>
</linearGradient>
</defs>
</svg>
